X: 1
T: String Quartet in E\b Major opus 1 no 0 mvt 3
C: Franz Joseph Haydn
%%abc-version 2.0
%%abcx-abcm2ps-target-version 5.9.1 (29 Sep 2008)
%%abc-creator hum2abc beta
%%abcx-conversion-date 2021/02/14 14:38:17
%%abc-copyright Copyright (c) 1994, 2000 Center for Computer Assisted Research in the Humanities
%%abc-edited-by Frances Bennion
%%abcx-initial-encoding-date 1997/04/15
%%gracespace 0 6 6
%%humdrum-veritas 3477935853
%%humdrum-veritas-data 1860310394
%%linebreak <none>
%%barnumbers 0
L: 1/4
M: 2/2
N: Derived from op01n0-03.krn
Q: "Adagio"
V: 1
V: 2
V: 3
V: 4 clef=alto
V: 5 clef=bass
K: Bb
[V:1]b4 [I:setbarnb2] |
[V:2]z4 |
[V:3]z/B/ d/B/ D z |
[V:4]z2 z/D/ F/D/ |
[V:5]B,, z B, z |
[V:1]f3 e//d//c//B// |
[V:2]z4 |
[V:3]z/B/ d/B/ D z |
[V:4]d z >D F/D/ |
[V:5]B,, z B, z |
[V:1]c >d e e |
[V:2]F3 F |
[V:3]z/A/ c/A/ F z |
[V:4]F z >F c/A/ |
[V:5]F,, z F, z |
[V:1]d2 z2 |
[V:2]z4 |
[V:3]z/B/ F/B/ B, z |
[V:4]B z >D F/D/ |
[V:5]B,, z B, z |
[V:1]F4 |
[V:2]B, >C D D |
[V:3]z/B/ d/B/ B, z |
[V:4]B z >B, D/B,/ |
[V:5]B,, z B, z |
[V:1]F4 |
[V:2]C >D E E |
[V:3]z/A/ c/A/ F z |
[V:4]F z >A, C/A,/ |
[V:5]F,, z F, z |
[V:1]D/F/ B/d <f d/ |
[V:2]z4 |
[V:3]z/D/ F/B/ D z |
[V:4]B, z >B d/B/ |
[V:5]B,, z B, z |
[V:1]d2 c2 |
[V:2]z4 |
[V:3]z/B/ F/B/ A z |
[V:4]F z >F, A,/C/ |
[V:5]F, z F,, z |
[V:1][f4A4] |
[V:2]z4 |
[V:3]z/A/ c/A/ A, z |
[V:4]F z >F A/F/ |
[V:5]F,, z F, z |
[V:1][B3/=e3/] (3g//f//e//b z |
[V:2]z4 |
[V:3]z/G/ B/G/ =E z |
[V:4]B z >=E G/E/ |
[V:5]G,, z G, z |
[V:1]b g =e B |
[V:2]z4 |
[V:3]z/G/ B/G/ C z |
[V:4]c z >G =E/G/ |
[V:5]C, z C z |
[V:1]B2 A2 |
[V:2]z4 |
[V:3]z/C/ =E/C/ F z |
[V:4]F z >A, C/A,/ |
[V:5]F,, z F, z |
[V:1]c >d e e |
[V:2]z4 |
[V:3]z/F/ A/B/ c z |
[V:4]F z >F c/F/ |
[V:5]A,, z A, z |
[V:1]d B,2 A, |
[V:2]z4 |
[V:3]z/B/ d/B/ D z |
[V:4]B z >D ^F/D/ |
[V:5]B,, z B, z |
[V:1]G, d' b g |
[V:2]z4 |
[V:3]z/B/ G/B/ G, z |
[V:4]G z >G B/G/ |
[V:5]B,, z B, z |
[V:1]=e2 z2 |
[V:2]z4 |
[V:3]z/c/ G/c/ =E z |
[V:4]c z >=E G/E/ |
[V:5]C z C, z |
[V:1]c'4- |
[V:2]z4 |
[V:3]z/F/ A/F/ B/G/ c/=E/ |
[V:4]F z3 |
[V:5]F, z C, z |
[V:1]c'4- |
[V:2]z4 |
[V:3]F/A/ c/A/ B/G/ =E/C/ |
[V:4]z/F/ A/F/ G/=E/ C/B/ |
[V:5]F, z C z |
[V:1]c'4 |
[V:2]z4 |
[V:3]F/C/ A/c/ B/g/ =e/B/ |
[V:4]A/c/ F/A/ G/=E/ C/E/ |
[V:5]F, z C, z |
[V:1]a'2 g'/f'/ =e'/d'/ |
[V:2]z4 |
[V:3]A/F/ A/c/ f z |
[V:4]F z >F A/B/ |
[V:5]F, z A, z |
[V:1]c'2 b2 |
[V:2]z4 |
[V:3]z/F/ A/F/ G z |
[V:4]F z >C G/C/ |
[V:5]C, z =E, z |
[V:1]a2 [fA] z |
[V:2]z4 |
[V:3]z/c/ f/c/ F z |
[V:4]F z >F A/F/ |
[V:5]F, z D, z |
[V:1][g2B2] b/g/ f/=e/ |
[V:2]z4 |
[V:3]z/d/ B/d/ D z |
[V:4]d z >B A/G/ |
[V:5]B,, z G,, C, |
[V:1]f z c3/ ^c/ |
[V:2]z4 |
[V:3]z/A/ c/A/ F z |
[V:4]A z >A F/E/ |
[V:5]F,, z A,, z |
[V:1]d/D/ B/G/ F =E |
[V:2]z4 |
[V:3]z/B,/ D/B,/ A, z |
[V:4]D z >A, G,/B,/ |
[V:5]B,, z C, z |
[V:1]F2 [B,2=E2] |
[V:2]z4 |
[V:3]z/A,/ F/A,/ G, z |
[V:4]A, z >G, B,/G,/ |
[V:5]F, z C, z |
[V:1][A,F] z [=E2B,2] |
[V:2]z4 |
[V:3]z/A,/ F/A,/ G, z |
[V:4]F, z >G, B,/G,/ |
[V:5]F, z C, z |
[V:1][A,F] z3 |
[V:2]z4 |
[V:3]z/A,/ C/A,/ F z |
[V:4]F,/F,/ A,/F,/ A, z |
[V:5]F, z F,, z |
[V:1]f4 |
[V:2]z4 |
[V:3]z/F/ A/F/ A, z |
[V:4]z2 z/A,/ C/A,/ |
[V:5]F,, z F, z |
[V:1]c3 B//A//G//F// |
[V:2]z4 |
[V:3]z/F/ A/F/ A, z |
[V:4]A z >A, C/A,/ |
[V:5]F,, z F, z |
[V:1]G >A B B |
[V:2]C3 C |
[V:3]z/=E/ G/E/ C z |
[V:4]C z >C G/=E/ |
[V:5]=E, z =E,, z |
[V:1]A2 z2 |
[V:2]C2 z2 |
[V:3]z/C/ F/C/ F z |
[V:4]F z >A, C/A,/ |
[V:5]F,, z F, z |
[V:1]c >d e e |
[V:2]F3 F |
[V:3]z/A/ c/A/ F z |
[V:4]F, z >F c/A/ |
[V:5]A,, z A, z |
[V:1]d2 z2 |
[V:2]F2 z2 |
[V:3]z/F/ B/F/ D z |
[V:4]B z >D F/D/ |
[V:5]B,, z B, z |
[V:1]f >g _a a |
[V:2]B3 B |
[V:3]z/d/ f/d/ B z |
[V:4]B z >B, F/D/ |
[V:5]D, z D, z |
[V:1]g2 b2 |
[V:2]z4 |
[V:3]z/B/ e/B/ E z |
[V:4]E z >B e/B/ |
[V:5]E, z G, z |
[V:1]b2 _a2 |
[V:2]z4 |
[V:3]z/c/ e/c/ f z |
[V:4]c z >c _A/c/ |
[V:5]_A, z F, z |
[V:1]_a2 g/e/ B/G/ |
[V:2]z4 |
[V:3]z/B/ f/B/ g z |
[V:4]B z >E G/B/ |
[V:5]D, z E, z |
[V:1]F >c E D |
[V:2]z4 |
[V:3]z/c/ C/_A/ G z |
[V:4]c z >G F/A,/ |
[V:5]_A,, z B,, z |
[V:1]E2 z2 |
[V:2]z4 |
[V:3]z/E/ G/E/ G, z |
[V:4]G, z >G, B,/G,/ |
[V:5]E, z E,, z |
[V:1]=E4 |
[V:2]z4 |
[V:3]z/G,/ B,/G,/ B, z |
[V:4]G z >G, B,/G,/ |
[V:5]C, z C z |
[V:1]F c _A F |
[V:2]z4 |
[V:3]z/_A,/ F/A,/ C z |
[V:4]_A, z >C A,/C/ |
[V:5]F, z F,, z |
[V:1]D2 z2 |
[V:2]z4 |
[V:3]z/F/ B/F/ D z |
[V:4]B, z >F B,/_A/ |
[V:5]B,, z B, z |
[V:1][E2G,2] g3/ a/ |
[V:2]z4 |
[V:3]z/E/ G/E/ B, z |
[V:4]G z >E G/E/ |
[V:5]E, z E, z |
[V:1]b [df] [df] [df] |
[V:2]z4 |
[V:3]z/B/ d/B/ B, z |
[V:4]B, z >B, D/B,/ |
[V:5]D, z B, z |
[V:1]f2 f2 |
[V:2]e2 d/B/ d/B/ |
[V:3]z/A/ c/A/ B, z |
[V:4]A, z >D F/D/ |
[V:5]F, z B, z |
[V:1]f2 d f |
[V:2]e2 z2 |
[V:3]z/A/ c/A/ B, z |
[V:4]A z >B, D/B,/ |
[V:5]F, z B,, z |
[V:1]c2 z2 |
[V:2]z4 |
[V:3]z/F/ A/F/ A,/G/ F/E/ |
[V:4]A, z >E D/C/ |
[V:5]F, z F,, z |
[V:1]b4 |
[V:2]z4 |
[V:3]D/B/ d/B/ D z |
[V:4]B, z >D F/D/ |
[V:5]B,, z B, z |
[V:1]f3 e//d//c//B// |
[V:2]z4 |
[V:3]z/B/ d/B/ D z |
[V:4]d z >D F/D/ |
[V:5]B,, z B, z |
[V:1]c >d e e |
[V:2]F3 F |
[V:3]z/A/ c/A/ F z |
[V:4]F z >F c/A/ |
[V:5]A,, z A, z |
[V:1]d2 z2 |
[V:2]F2 z2 |
[V:3]z/B/ F/B/ B, z |
[V:4]B z >D F/D/ |
[V:5]B,, z B, z |
[V:1]F4 |
[V:2]B, >C D D |
[V:3]z/B/ d/B/ B, z |
[V:4]B z >B, D/B,/ |
[V:5]B,, z B, z |
[V:1]F4 |
[V:2]C >D E E |
[V:3]z/A/ c/A/ F z |
[V:4]F z >A, C/A,/ |
[V:5]F,, z F, z |
[V:1]D/F/ B/d <f d/ |
[V:2]z4 |
[V:3]z/D/ F/B/ D z |
[V:4]B, z >B d/B/ |
[V:5]B,, z B, z |
[V:1]d2 c2 |
[V:2]z4 |
[V:3]z/B/ F/B/ A z |
[V:4]F z >F c/A/ |
[V:5]F, z F,, z |
[V:1][B4D4] |
[V:2]z4 |
[V:3]z/D/ F/D/ B, z |
[V:4]B z >B, D/B,/ |
[V:5]B,, z B, z |
[V:1][E3/A3/] (3c//B//A//e z |
[V:2]z4 |
[V:3]z/C/ E/C/ A, z |
[V:4]E z >A, C/A,/ |
[V:5]C, z C z |
[V:1]e c A E |
[V:2]z4 |
[V:3]z/C/ E/C/ E z |
[V:4]F z >_A, C/=A,/ |
[V:5]F,, z F, z |
[V:1]E2 D2 |
[V:2]z4 |
[V:3]z/F/ B/F/ D z |
[V:4]B, z >D F/D/ |
[V:5]B,, z B, z |
[V:1]f >g _a a |
[V:2]z4 |
[V:3]z/B/ d/e/ f z |
[V:4]B z >B, F/B,/ |
[V:5]D, z D z |
[V:1]g e'2 d' |
[V:2]z4 |
[V:3]z/e/ g/e/ G z |
[V:4]E z >G =B/G/ |
[V:5]E, z E z |
[V:1]c' g' f'/e'/ d'/c'/ |
[V:2]z4 |
[V:3]z/e/ c/e/ E z |
[V:4]c z >c e/c/ |
[V:5]E, z E, z |
[V:1]a2 z2 |
[V:2]z4 |
[V:3]z/f/ c/f/ A z |
[V:4]F z >A c/A/ |
[V:5]F, z F,, z |
[V:1]f4 |
[V:2]z4 |
[V:3]z/B/ d/B/ e/c/ f/A/ |
[V:4]B z3 |
[V:5]B,, z F, z |
[V:1]f4 |
[V:2]z4 |
[V:3]B/d/ f/d/ e/c/ A/E/ |
[V:4]z/B/ d/B/ c/A/ F/e/ |
[V:5]B, z F, z |
[V:1]f4 |
[V:2]z4 |
[V:3]B/F/ d/f/ e/c/ A/E/ |
[V:4]d/F/ B/d/ c/A/ F/A/ |
[V:5]B,, z F,, z |
[V:1]d'2 c'/b/ a/g/ |
[V:2]z4 |
[V:3]D/B,/ D/F/ B z |
[V:4]B z >B, D/F/ |
[V:5]B,, z D z |
[V:1]f2 e2 |
[V:2]z4 |
[V:3]z/B/ d/B/ c z |
[V:4]B, z >F c/F/ |
[V:5]F, z A, z |
[V:1]d z [BD] z |
[V:2]z4 |
[V:3]z/F/ B/F/ B, z |
[V:4]B z >B, D/B,/ |
[V:5]B, z G, z |
[V:1][E2c2] e/c/ B/A/ |
[V:2]z4 |
[V:3]z/G/ E/G/ G, z |
[V:4]G z >E D/C/ |
[V:5]E, z C, F, |
[V:1]B z f3/ ^f/ |
[V:2]z4 |
[V:3]z/D/ F/D/ B, z |
[V:4]D z >D B,/A,/ |
[V:5]B,, z D, z |
[V:1]g/b/ c/e/ d c |
[V:2]z4 |
[V:3]z/E/ G/c/ B z |
[V:4]G, z >B A/E/ |
[V:5]E, z F, z |
[V:1]B2 [A2E2] |
[V:2]z4 |
[V:3]z/D/ B/D/ C z |
[V:4]D z >C E/C/ |
[V:5]B, z F, z |
[V:1][BD] z [E2A,2] |
[V:2]z4 |
[V:3]z/D/ B/D/ C z |
[V:4]B, z >C E/C/ |
[V:5]B,, z F,, z |
[V:1][B,D] z3 |]
[V:2]z4 |]
[V:3]z/D/ D/C/ B, z |]
[V:4]B,/F,/ F,/E,/ D, z |]
[V:5]B,, z B,, z |]

